lib/preview_tmp/nrk-logo-preview-nrk-sport-title-below.svg

<svg width="49" height="40" viewBox="0 0 49 40" fill="none" xmlns="http://www.w3.org/2000/svg">
<path d="M0 15.0033V1.00459H4.59339V15.0033H0ZM10.8428 3.23256L13.4844 15.0033H8.45737L5.30307 1.00459H8.12254C8.76907 0.996197 9.39641 1.22411 9.88691 1.64544C10.3782 2.04909 10.7158 2.60946 10.8428 3.23256ZM14.1744 15.0033V1.00459H18.7678V15.0033H14.1744ZM22.2372 6.3281C21.7422 6.33292 21.2552 6.20342 20.828 5.95344C20.4064 5.70979 20.0563 5.3596 19.8127 4.93801C19.5624 4.5107 19.4329 4.02354 19.4378 3.52835C19.4321 3.03619 19.5618 2.55193 19.8127 2.12848C20.0589 1.71147 20.4086 1.36509 20.828 1.12292C21.2553 0.873236 21.7423 0.74375 22.2372 0.748264C22.7292 0.742965 23.2133 0.872567 23.6369 1.12292C24.0521 1.36721 24.3981 1.7133 24.6424 2.12848C24.893 2.55204 25.0226 3.03623 25.0172 3.52835C25.0218 4.0235 24.8923 4.51058 24.6424 4.93801C24.4007 5.35775 24.0542 5.70764 23.6369 5.95344C23.2133 6.20429 22.7289 6.33392 22.2366 6.3281H22.2372ZM25.7269 15.0033V1.00459H30.3207V15.0033H25.7269ZM36.136 8.65459C36.1489 8.66817 36.2475 8.82918 36.4317 9.13763C36.6159 9.44609 36.8558 9.84045 37.1513 10.3207C37.447 10.8006 37.759 11.3099 38.0874 11.8486C38.4157 12.3873 38.7247 12.8967 39.0143 13.3767C39.3028 13.8567 39.6313 14.3989 40 15.0033H34.9531C34.6375 14.4907 34.3515 14.0274 34.0952 13.6133C33.8389 13.1993 33.5665 12.7523 33.2778 12.2726C32.9884 11.7932 32.7024 11.3266 32.4196 10.8727C32.1368 10.4188 31.8938 10.0212 31.6905 9.67988C31.4863 9.33835 31.3449 9.10829 31.2663 8.98977C31.0713 8.69567 30.9559 8.35599 30.9315 8.00395C30.951 7.66607 31.0597 7.33946 31.2466 7.05728C31.3254 6.92583 31.47 6.69248 31.6803 6.3573C31.8906 6.02212 32.137 5.62454 32.4196 5.16449C32.7021 4.70444 32.9882 4.23452 33.2778 3.75475C33.5674 3.27499 33.8398 2.82476 34.0952 2.40414C34.3519 1.98396 34.6379 1.51733 34.9531 1.00427H40L36.0962 7.37273C35.9754 7.56181 35.9073 7.77972 35.8991 8.00395C35.9121 8.23936 35.9942 8.46569 36.1353 8.65459H36.136Z" fill="white"/>
<path d="M8.59346 28.4648C8.30633 28.1722 7.973 27.9289 7.60684 27.7446C7.22312 27.5503 6.82382 27.3886 6.41306 27.2611C5.9921 27.1296 5.558 27.0177 5.11073 26.9253C4.76826 26.8466 4.4492 26.7678 4.15365 26.6889C3.88204 26.6187 3.61778 26.5228 3.36438 26.4024C3.14661 26.2993 2.94414 26.1665 2.76284 26.0078C2.59205 25.8573 2.46 25.6679 2.37776 25.4556C2.28696 25.2059 2.2436 24.9415 2.24985 24.6759C2.24547 24.4008 2.28872 24.1271 2.37776 23.8668C2.45876 23.6373 2.59415 23.4308 2.77239 23.265C2.9571 23.0959 3.16679 22.9562 3.39401 22.8509C3.65395 22.7324 3.92984 22.6526 4.21291 22.6141C4.54949 22.5661 4.8891 22.5431 5.22908 22.5451C5.53885 22.5457 5.84842 22.562 6.15653 22.5941C6.46814 22.6266 6.77776 22.6761 7.08398 22.7424C7.38137 22.8069 7.67457 22.8893 7.96205 22.989C8.23122 23.0816 8.49194 23.1971 8.74144 23.3341L9.01773 21.5979C8.73715 21.4515 8.44311 21.3326 8.13966 21.2427C7.83051 21.1509 7.51805 21.0718 7.20233 21.0056C6.88282 20.9396 6.56011 20.8903 6.23546 20.8579C5.90658 20.8251 5.57111 20.8086 5.22908 20.8086C4.5313 20.801 3.83528 20.8804 3.15715 21.0451C2.57968 21.1845 2.03398 21.4324 1.54899 21.7755C1.10217 22.0961 0.742672 22.5233 0.503188 23.0183C0.247752 23.5747 0.122853 24.1822 0.138102 24.7942C0.126803 25.2679 0.203735 25.7395 0.365006 26.1851C0.506555 26.5586 0.725112 26.8982 1.00638 27.1819C1.2845 27.4595 1.60385 27.6925 1.95318 27.8725C2.32373 28.0634 2.71005 28.222 3.10785 28.3464C3.52223 28.478 3.94652 28.5898 4.38064 28.6819C4.73582 28.7606 5.0647 28.8428 5.36726 28.9285C5.64872 29.0061 5.92276 29.1084 6.18616 29.2344C6.41257 29.3412 6.62197 29.4809 6.80769 29.6488C6.98395 29.8143 7.12199 30.0164 7.2122 30.2408C7.31675 30.5111 7.36702 30.7994 7.36018 31.0892C7.36537 31.3974 7.31871 31.7043 7.22208 31.9969C7.13551 32.2501 7.00159 32.4845 6.82745 32.6876C6.65236 32.8877 6.4372 33.049 6.19595 33.1608C5.92324 33.2864 5.6342 33.3729 5.33731 33.4177C4.97508 33.4733 4.60892 33.4997 4.24245 33.4966C3.88618 33.4957 3.53031 33.4726 3.1769 33.4275C2.80856 33.3815 2.44027 33.3189 2.07193 33.2398C1.70889 33.1625 1.34996 33.067 0.996501 32.9537C0.647893 32.8425 0.31572 32.7275 0 32.6086L0.256532 34.5622C0.5929 34.6877 0.93532 34.7963 1.28258 34.8874C1.59785 34.9702 1.91736 35.0361 2.23966 35.0848C2.54836 35.1306 2.85745 35.1667 3.16703 35.1933C3.47661 35.2198 3.78897 35.233 4.10403 35.2327C4.81046 35.2371 5.51521 35.1644 6.20583 35.0157C6.8172 34.8875 7.39936 34.6466 7.92255 34.3053C8.41071 33.9822 8.80547 33.5365 9.06711 33.0128C9.35541 32.3926 9.49397 31.7133 9.47161 31.0297C9.48234 30.5204 9.40552 30.0131 9.24463 29.5297C9.107 29.1319 8.88485 28.7686 8.59346 28.4648Z" fill="white"/>
<path d="M19.4464 25.357C18.7382 24.9233 17.9183 24.7072 17.0884 24.7354C16.5958 24.7378 16.1054 24.8006 15.6282 24.9225C15.1124 25.0538 14.6152 25.2495 14.1482 25.5049C14.0555 25.5549 13.9634 25.6112 13.872 25.6674V24.7551L11.8593 25.0708V39.1595H13.872V34.7417C13.8854 34.7473 13.898 34.7536 13.9115 34.7595C14.2761 34.9108 14.6567 35.02 15.0461 35.0851C15.5057 35.1609 15.971 35.1972 16.4369 35.1936C17.3254 35.2089 18.2015 34.9838 18.9725 34.5421C19.7297 34.0934 20.3452 33.4404 20.7484 32.658C21.2144 31.7251 21.4415 30.6911 21.4094 29.6487C21.428 28.7674 21.2563 27.8925 20.9059 27.0835C20.5975 26.3784 20.0903 25.7785 19.4464 25.357ZM18.9235 31.9575C18.6865 32.4814 18.2891 32.9166 17.7888 33.2003C17.2327 33.4917 16.6108 33.6345 15.9833 33.615C15.6827 33.6152 15.3825 33.592 15.0855 33.5456C14.7738 33.4959 14.4669 33.4201 14.1679 33.319C14.0732 33.2861 13.9706 33.2486 13.872 33.2125V26.9852C13.8979 26.973 13.9249 26.9572 13.9509 26.9454C14.2401 26.8139 14.5097 26.7019 14.7599 26.6096C14.9966 26.5212 15.241 26.4552 15.49 26.4123C15.7116 26.3741 15.936 26.3543 16.1609 26.3531C16.7691 26.3329 17.3728 26.4652 17.9168 26.7379C18.3926 26.9969 18.7652 27.4111 18.9725 27.9116C19.2234 28.552 19.3409 29.2369 19.3178 29.9243C19.3388 30.6229 19.2041 31.3174 18.9235 31.9575Z" fill="white"/>
<path d="M31.0293 25.3667C30.2072 24.9298 29.2863 24.7124 28.3556 24.7353C27.4162 24.7138 26.4876 24.9383 25.6618 25.3865C24.8995 25.8131 24.276 26.4501 23.8661 27.2216C23.4208 28.0869 23.2003 29.0504 23.2248 30.0233C23.1996 30.9887 23.406 31.9461 23.8267 32.8154C24.2047 33.5743 24.8076 34.198 25.5533 34.6016C26.3559 35.022 27.252 35.2323 28.1579 35.213C29.1063 35.2318 30.0437 35.0077 30.881 34.5621C31.6629 34.1356 32.304 33.4911 32.7264 32.7069C33.1845 31.8314 33.412 30.8536 33.3874 29.8658C33.4098 28.9248 33.1995 27.9928 32.7753 27.1525C32.3822 26.3981 31.7747 25.7767 31.0293 25.3667ZM30.9106 31.9772C30.6889 32.4898 30.3132 32.9208 29.8355 33.2104C29.3554 33.4852 28.81 33.6249 28.2569 33.6149C27.7145 33.6284 27.1798 33.4844 26.7175 33.2002C26.2602 32.8964 25.9031 32.464 25.6914 31.9574C25.4228 31.3075 25.295 30.6081 25.3165 29.9052C25.2932 29.2213 25.4211 28.5406 25.6914 27.9119C25.9128 27.4177 26.2816 27.0042 26.7474 26.728C27.2451 26.4538 27.807 26.3176 28.375 26.3333C28.8185 26.3222 29.2592 26.4063 29.6675 26.58C30.0251 26.7414 30.337 26.989 30.5755 27.3005C30.8298 27.639 31.0141 28.0247 31.1178 28.4352C31.2411 28.9153 31.3008 29.4095 31.2954 29.9052C31.3184 30.6156 31.1874 31.3225 30.9106 31.9772Z" fill="white"/>
<path d="M39.9577 24.883C39.5887 24.9822 39.2363 25.1351 38.9118 25.3369C38.5753 25.5471 38.2642 25.7954 37.9844 26.0768C37.9377 26.1235 37.8926 26.1755 37.8463 26.2245V24.7551L35.8336 25.0511V35.016H37.8463V27.561C37.9958 27.4565 38.1506 27.3597 38.31 27.271C38.5074 27.162 38.7118 27.0664 38.922 26.9848C39.1257 26.9059 39.3328 26.8368 39.5433 26.7776C39.7599 26.7173 39.9809 26.6743 40.2044 26.6491C40.4435 26.6228 40.6844 26.6163 40.9246 26.6297L41.1614 24.7745C40.7569 24.7457 40.3505 24.7824 39.9577 24.883Z" fill="white"/>
<path d="M48.5216 33.3684C48.4291 33.3881 48.3272 33.4075 48.2154 33.4275L47.8803 33.4864C47.7726 33.5059 47.6639 33.5191 47.5547 33.5262C47.449 33.5328 47.3504 33.5361 47.2587 33.5361C46.9564 33.5441 46.6561 33.4834 46.3806 33.3585C46.1439 33.2461 45.9475 33.0635 45.8182 32.8356C45.68 32.5781 45.612 32.2887 45.6209 31.9966V26.531H48.4032L48.6202 24.9524H45.6209V21.835L43.6082 22.5454V24.9524H42.0888L41.8714 26.531H43.6082V32.4113C43.5992 32.8035 43.6593 33.1943 43.7858 33.5657C43.8873 33.8594 44.0448 34.1306 44.2495 34.3645C44.437 34.5731 44.6654 34.741 44.9204 34.8578C45.1812 34.9779 45.4563 35.0642 45.739 35.1147C46.0189 35.1662 46.3029 35.1926 46.5875 35.1936C46.798 35.1936 47.0052 35.1869 47.2094 35.1735C47.4135 35.1602 47.601 35.1405 47.7718 35.1147C47.9425 35.088 48.104 35.0584 48.2552 35.0255C48.4065 34.9926 48.5344 34.9637 48.6397 34.9371L48.7584 33.2989C48.6816 33.3287 48.6023 33.3519 48.5216 33.3684Z" fill="white"/>
</svg>

<svg xmlns="http://www.w3.org/2000/svg" viewBox="0 0 49 40"><path fill="#fff" d="M0 15.003V1.005h4.593v13.998H0Zm10.843-11.77 2.641 11.77H8.457L5.303 1.005h2.82a2.655 2.655 0 0 1 1.764.64c.491.404.829.964.956 1.588Zm3.331 11.77V1.005h4.594v13.998h-4.594Zm8.063-8.675a2.737 2.737 0 0 1-1.409-.375 2.778 2.778 0 0 1-1.015-1.015 2.735 2.735 0 0 1-.375-1.41 2.685 2.685 0 0 1 .375-1.4 2.812 2.812 0 0 1 3.824-1.005c.415.244.761.59 1.005 1.005.251.424.38.908.375 1.4.005.496-.125.983-.375 1.41a2.8 2.8 0 0 1-1.005 1.015c-.424.251-.908.38-1.4.375Zm3.49 8.675V1.005h4.594v13.998h-4.594Zm10.409-6.348c.013.013.111.174.296.483.184.308.424.702.72 1.183a377.185 377.185 0 0 1 1.862 3.056c.289.48.617 1.022.986 1.626h-5.047l-.858-1.39c-.256-.414-.529-.86-.817-1.34-.29-.48-.576-.946-.858-1.4a71.06 71.06 0 0 1-.73-1.193 21.112 21.112 0 0 0-.424-.69 2.04 2.04 0 0 1-.334-.986c.019-.338.128-.665.315-.947.078-.131.223-.365.433-.7a216.7 216.7 0 0 0 1.598-2.603l.817-1.35.858-1.4H40l-3.904 6.369c-.12.189-.189.407-.197.63.013.236.095.463.236.652h.001ZM8.593 28.465a3.735 3.735 0 0 0-.986-.72 7.687 7.687 0 0 0-1.194-.484 13.578 13.578 0 0 0-1.302-.336 28.273 28.273 0 0 1-.957-.236 4.41 4.41 0 0 1-.79-.287 2.607 2.607 0 0 1-.601-.394 1.42 1.42 0 0 1-.385-.552 2.134 2.134 0 0 1-.128-.78 2.382 2.382 0 0 1 .128-.81c.08-.229.216-.435.394-.601a2.44 2.44 0 0 1 .622-.414c.26-.119.536-.198.819-.237a6.91 6.91 0 0 1 1.016-.069c.31 0 .62.017.928.05.311.032.62.081.927.147.297.065.59.147.878.247.27.093.53.208.78.345l.276-1.736a4.918 4.918 0 0 0-.878-.355c-.31-.092-.622-.171-.938-.237a9.388 9.388 0 0 0-.967-.148c-.328-.033-.664-.05-1.006-.05a8.392 8.392 0 0 0-2.072.237 4.69 4.69 0 0 0-1.608.73c-.447.321-.806.748-1.046 1.243a4.017 4.017 0 0 0-.365 1.776 3.82 3.82 0 0 0 .227 1.391c.142.374.36.713.641.997.278.277.598.51.947.69.37.191.757.35 1.155.474.414.132.839.244 1.273.336.355.079.684.16.986.247.282.077.556.18.82.305.226.107.435.247.62.415.177.165.315.367.405.592.105.27.155.558.148.848.005.308-.041.615-.138.908a2.11 2.11 0 0 1-.395.69c-.175.2-.39.362-.631.474a3.19 3.19 0 0 1-.859.257 6.836 6.836 0 0 1-1.095.079c-.356-.001-.712-.024-1.065-.07a12.838 12.838 0 0 1-1.105-.187 11.088 11.088 0 0 1-1.075-.286c-.35-.111-.681-.227-.997-.345l.257 1.953c.336.126.678.234 1.026.325.315.083.634.15.957.198.308.046.617.082.927.108.31.027.622.04.937.04a9.698 9.698 0 0 0 2.102-.217 5.032 5.032 0 0 0 1.717-.71 3.34 3.34 0 0 0 1.144-1.293c.288-.62.427-1.3.405-1.983a4.453 4.453 0 0 0-.227-1.5 2.916 2.916 0 0 0-.652-1.065ZM19.446 25.357a4.24 4.24 0 0 0-2.358-.622 6.018 6.018 0 0 0-1.46.188 6.348 6.348 0 0 0-1.756.744v-.912l-2.013.316v14.088h2.013v-4.417l.04.018c.364.15.745.26 1.134.325.46.076.925.112 1.39.109a4.93 4.93 0 0 0 2.537-.652 4.684 4.684 0 0 0 1.775-1.884 6.3 6.3 0 0 0 .661-3.01 6.129 6.129 0 0 0-.503-2.564 3.96 3.96 0 0 0-1.46-1.727Zm-.523 6.6c-.236.524-.634.96-1.134 1.243a3.646 3.646 0 0 1-1.806.415 5.634 5.634 0 0 1-1.815-.296c-.095-.033-.197-.07-.296-.107v-6.227c.026-.012.053-.028.079-.04.29-.131.559-.243.809-.335a4.054 4.054 0 0 1 1.4-.257 3.648 3.648 0 0 1 1.757.385c.476.259.848.673 1.055 1.174.251.64.369 1.325.346 2.012a4.712 4.712 0 0 1-.395 2.034ZM31.03 25.367a5.414 5.414 0 0 0-2.674-.632 5.389 5.389 0 0 0-2.694.652 4.549 4.549 0 0 0-1.796 1.835 5.804 5.804 0 0 0-.641 2.801 6.047 6.047 0 0 0 .602 2.792 4.12 4.12 0 0 0 1.726 1.787c.803.42 1.699.63 2.605.611a5.562 5.562 0 0 0 2.723-.65 4.596 4.596 0 0 0 1.845-1.856 5.816 5.816 0 0 0 .661-2.841 5.719 5.719 0 0 0-.612-2.713 4.313 4.313 0 0 0-1.746-1.786Zm-.12 6.61a2.692 2.692 0 0 1-1.075 1.233 3.066 3.066 0 0 1-1.578.405 2.806 2.806 0 0 1-1.54-.415 2.778 2.778 0 0 1-1.026-1.243 4.975 4.975 0 0 1-.374-2.052 4.646 4.646 0 0 1 .374-1.993c.222-.494.59-.908 1.056-1.184a3.19 3.19 0 0 1 1.628-.395c.444-.01.884.073 1.293.247.357.161.669.409.908.72.254.339.438.725.542 1.135.123.48.183.975.177 1.47a4.912 4.912 0 0 1-.384 2.072ZM39.958 24.883c-.37.1-.722.252-1.046.454-.337.21-.648.458-.928.74-.046.046-.091.098-.138.147v-1.469l-2.012.296v9.965h2.012v-7.455a5.037 5.037 0 0 1 1.076-.576c.204-.08.41-.148.621-.207a4.233 4.233 0 0 1 1.382-.148l.236-1.855a3.772 3.772 0 0 0-1.203.108ZM48.522 33.368a9.62 9.62 0 0 1-.307.06l-.335.058c-.107.02-.216.033-.325.04-.106.007-.205.01-.296.01a1.999 1.999 0 0 1-.878-.178 1.276 1.276 0 0 1-.563-.522 1.667 1.667 0 0 1-.197-.84v-5.465h2.782l.217-1.579h-3v-3.117l-2.012.71v2.407h-1.52l-.217 1.579h1.737v5.88c-.009.392.051.783.178 1.155.101.293.259.565.463.798.188.21.416.377.671.494.261.12.536.206.819.257.28.051.564.078.849.079.21 0 .417-.007.621-.02a6.697 6.697 0 0 0 1.046-.148c.151-.033.28-.062.385-.089l.118-1.638c-.076.03-.156.053-.236.07Z"/></svg>
